X:102
T:Humours of Ballyloughlin, The
T:Hurler's March, The
R:jig
D:Matt Molloy.
Z:id:hn-jig-65
M:6/8
K:Dmix
~A3 AGE|GED DED|cAA ded|cAG FED|
~A3 AGE|~G3 cGE|~D3 DFA| ~D3 D3:||
|:cBc cBc|cAG AB^c|~d3 dfe|dAF DFA|
c2A dcB|cAG FGE|~D3 DFA| ~D3 D2B:||
|:fdd gdd|fdd ged|cde ged|cde ged|
fdd gdd|fdd ged|cde gag| ed^c d2e:||
|:~A3 A2G|FGF FED|~E3 EFD|~E3 EFG|
AFA dAG|~F3 GEA|~D3 DFA|~D3 D3:||
